X:1
T:Title
%%score { ( 1 4 5 ) | ( 2 3 ) }
L:1/8
Q:1/4=90
M:4/4
K:C
V:1 treble nm="Grand Piano"
V:4 treble 
V:5 treble 
V:2 bass 
V:3 bass 
V:1
 [CEG]2 (3[C-E-G][CE][CEB] [Ec][Ec][EG][EG] | AAFA [EG]4 | E2 ^F>^G A>B ce | %3
w: J.~Lincoln~Hall * * * * * * *|||
 [^Fd][EFc][DFB][CFA] [B,G]4 | [CEG]2 (3[C-E-G][CE][CEB] [Ec]>[EG] [EG]G | ABc[Ad] [^Ge]4 | %6
w: |||
 [^Ge]2 [Ge]>[GB] [Bd]>c cc | %7
w: |
[M:5/4] [^GB][Gd][Gc][GB] A3 B3[Q:1/4=89][Q:1/4=87][Q:1/4=86][Q:1/4=85][Q:1/4=83][Q:1/4=82][Q:1/4=81][Q:1/4=79][Q:1/4=78][Q:1/4=77][Q:1/4=75][Q:1/4=74][Q:1/4=73][Q:1/4=71][Q:1/4=70][Q:1/4=69] | %8
w: |
[M:4/4][Q:1/4=100] [Ec]2 .[Ec]2 [G,EG]2 [EA]2 | [CE]6[K:bass] z2 | [Ec]2 .[Ec]2 [G,EG]2 [EA]2 | %11
w: |||
 [FB]6[K:bass] z2 | [E^Ge]2 e>e [EGe]2 [EGB]2 | d2 c2 B2 A2 | G4 z4 | [G,CE]6 z2 | %16
w: |||||
 c2 (3cBA [EG]2 [EA]2 | E6 z2 | c2 (3cBA [EG]2 [EA]2 | B2- [FB-]2 [FB]2 z2 | %20
w: ||||
 [^Ge]2 [Ge]>[Ge] [Ge]2 [GB]2 | d2 c2 B2 A2 | G3 ^G A2 B2 | [Ec]6 z2 |] %24
w: ||||
V:2
 C,2 (3C,-[C,A]C, [C,G,][C,G,][C,C][C,C] | [F,CF][F,CF][A,C][F,CF] [C,C]4 | %2
 [E,^G,D]2 [E,G,D]>[E,B,D] [A,C]>[A,D] [A,CE][A,CE] | z4 G,4 | %4
 C,2 (3C,-[C,A]C, [C,G,]>[C,C] [C,C]G, | A,B,C[F,A,] [E,B,]4 | %6
 [E,B,]2 [E,B,]>[E,E][K:treble] [A,E]>[A,EA] [A,EA][A,EA] | %7
[M:5/4][K:bass] [E,D][E,B,][E,E][E,D] [A,C]3 [G,DF]3 | %8
[M:4/4] [C,G,]2 (3z[K:treble] BA[K:bass] C,2 G,,2 | C,2 G,,2 C,2 z2 | %10
 [C,G,]2 (3z[K:treble] BA[K:bass] C,2 G,,2 | [D,G,]2 G,,2 D,2 z2 | %12
 [E,,E,]2 [E,^G,D]2 [E,,E,]2 [E,G,D]2 | [A,CEA]4 [^F,C_E]4 | E4 z4 | C,2 C,2 C,B,,A,,G,, | %16
 [C,G,]4 [C,C]2 [C,C]2 | [C,C]2 [C,G,]2 [C,G,]2 z2 | [C,G,]4 [C,C]2 [C,C]2 | %19
 [D,G,]2 [G,D]2 [G,D]2 z2 | [E,D]2 [E,D]>[E,D] [E,B,]2 [E,D]2 | [A,CE]2 [A,CE]2 [^F,C_E]2 [F,CE]2 | %22
 [G,CE]3 [G,CE] [G,B,F]2 [G,DF]2 | [C,C]6 z2 |] %24
V:3
 x8 | x8 | x8 | [D,C]D,D,D, z2 F2 | x8 | x8 | x4[K:treble] x4 |[M:5/4][K:bass] x10 | %8
[M:4/4] z2 G,,2[K:treble][K:bass] z4 | x8 | z2 G,,2[K:treble][K:bass] z4 | x8 | x8 | x8 | %14
 [G,C]2 G,,2 [G,B,D]2 [G,,,G,,]2 | x8 | x8 | x8 | x8 | x8 | x8 | x8 | x8 | x8 |] %24
V:4
 x8 | x8 | x8 | x8 | x8 | x8 | x8 |[M:5/4] x10 |[M:4/4] x8 | G,2 z2[K:bass] G,2 G,,2 | x8 | %11
 z4[K:bass] G,2 G,,2 | z2 [E^G]2 z4 | x8 | z2 z A F2 [B,DG]2 | x8 | E4 z4 | z2 C2 C2 z2 | E4 z4 | %19
 F2 z2 z4 | x8 | x8 | x8 | x8 |] %24
V:5
 x8 | x8 | x8 | x8 | x8 | x8 | x8 |[M:5/4] x10 |[M:4/4] x8 | x4[K:bass] x4 | x8 | x4[K:bass] x4 | %12
 x8 | x8 | z2 G,2 z4 | x8 | x8 | x8 | x8 | x8 | x8 | x8 | x8 | x8 |] %24

